rospo-light/16x16/actions/align-horizontal-top-out.svg

<svg height="16" viewBox="0 0 16 16" width="16" xmlns="http://www.w3.org/2000/svg"><path d="m9 1v2h5v-2zm-8 3v2h14v-2zm1 4v7h5v-7zm7 0v5h5v-5z" fill="#5c616c"/></svg>

<?xml version="1.0" encoding="UTF-8" standalone="no"?>
<svg xmlns="http://www.w3.org/2000/svg" width="22" height="22" viewBox="0 0 22 22">
 <defs>
  <style type="text/css" id="current-color-scheme">
   .ColorScheme-Text { color:#5c616c; } .ColorScheme-Highlight { color:#5294e2; }
  </style>
 </defs>
 <path style="fill:currentColor;opacity:1" class="ColorScheme-Text" transform="translate(3 3)" d="M 9 1 L 9 3 L 14 3 L 14 1 L 9 1 z M 1 4 L 1 6 L 15 6 L 15 4 L 1 4 z M 2 8 L 2 15 L 7 15 L 7 8 L 2 8 z M 9 8 L 9 13 L 14 13 L 14 8 L 9 8 z"/>
</svg>
